seeds/icons/general_safety.svg

<?xml version="1.0" encoding="utf-8"?><!-- Uploaded to: SVG Repo, www.svgrepo.com, Generator: SVG Repo Mixer Tools -->
<svg width="1.5rem" height="1.5rem" viewBox="0 0 24 24" fill="none" xmlns="http://www.w3.org/2000/svg">
<path d="M6 21H9M15 21H18M17.5 6.5V14.5M3 6.2L3 14.8C3 15.9201 3 16.4802 3.21799 16.908C3.40973 17.2843 3.71569 17.5903 4.09202 17.782C4.51984 18 5.07989 18 6.2 18L17.8 18C18.9201 18 19.4802 18 19.908 17.782C20.2843 17.5903 20.5903 17.2843 20.782 16.908C21 16.4802 21 15.9201 21 14.8V6.2C21 5.0799 21 4.51984 20.782 4.09202C20.5903 3.7157 20.2843 3.40974 19.908 3.21799C19.4802 3 18.9201 3 17.8 3L6.2 3C5.0799 3 4.51984 3 4.09202 3.21799C3.7157 3.40973 3.40973 3.71569 3.21799 4.09202C3 4.51984 3 5.07989 3 6.2ZM11.5 10.5C11.5 11.8807 10.3807 13 9 13C7.61929 13 6.5 11.8807 6.5 10.5C6.5 9.11929 7.61929 8 9 8C10.3807 8 11.5 9.11929 11.5 10.5Z" stroke="#000000" stroke-width="2" stroke-linecap="round" stroke-linejoin="round"/>
</svg>

<svg xmlns="http://www.w3.org/2000/svg" width="1.5rem" height="1.5rem" fill="none" viewBox="0 0 24 24"><path stroke="#000" stroke-linecap="round" stroke-linejoin="round" stroke-width="2" d="M6 21h3m6 0h3m-.5-14.5v8M3 6.2v8.6c0 1.12 0 1.68.218 2.108a2 2 0 0 0 .874.874C4.52 18 5.08 18 6.2 18h11.6c1.12 0 1.68 0 2.108-.218a2 2 0 0 0 .874-.874C21 16.48 21 15.92 21 14.8V6.2c0-1.12 0-1.68-.218-2.108a2 2 0 0 0-.874-.874C19.48 3 18.92 3 17.8 3H6.2c-1.12 0-1.68 0-2.108.218a2 2 0 0 0-.874.874C3 4.52 3 5.08 3 6.2m8.5 4.3a2.5 2.5 0 1 1-5 0 2.5 2.5 0 0 1 5 0"/></svg>
